icons/1_Primary/DNS.services.svg

<svg width="1024" height="1024" viewBox="0 0 1024 1024" fill="none" xmlns="http://www.w3.org/2000/svg">
<g clip-path="url(#clip0_2_2037)">
<path d="M512 1024C794.77 1024 1024 794.77 1024 512C1024 229.23 794.77 0 512 0C229.23 0 0 229.23 0 512C0 794.77 229.23 1024 512 1024Z" fill="#728DBE"/>
<path d="M413.881 373.8C410.421 370.6 405.791 368.66 401.061 368.71H312.741C312.741 416.88 312.761 465.04 312.741 513.2C342.171 513.23 371.611 513.2 401.051 513.22C406.581 513.31 411.861 510.6 415.501 506.52C421.161 500.46 423.951 492.12 423.921 483.9C423.921 455.25 423.931 426.6 423.921 397.95C423.951 389.01 420.561 379.89 413.881 373.81V373.8ZM399.641 481.88H336.711V400.03H399.651V481.88H399.641ZM456.511 368.71H481.241C501.981 400.79 522.691 432.9 543.441 464.99V368.72H567.691V513.22C559.451 513.23 551.201 513.22 542.961 513.23C522.121 481.01 501.311 448.77 480.471 416.56C480.461 448.78 480.471 481 480.471 513.23H456.511V368.73V368.71ZM607.601 376.05C611.231 371.74 616.591 368.69 622.321 368.71C644.291 368.69 666.261 368.71 688.221 368.71C692.691 368.66 697.091 370.4 700.441 373.33C707.051 379.06 710.661 387.74 710.961 396.4C711.051 401.56 710.981 406.71 711.001 411.87H686.751V400.04H623.781V425.32H688.181C692.791 425.24 697.321 427.11 700.731 430.19C707.291 436.05 710.811 444.83 710.981 453.54C711.031 461.6 710.981 469.66 711.001 477.71C710.951 481.81 711.211 485.93 710.501 489.99C709.401 496.94 706.021 503.58 700.781 508.31C697.491 511.29 693.161 513.18 688.691 513.22C668.121 513.23 647.551 513.22 626.981 513.22C623.811 513.18 620.561 513.47 617.481 512.52C612.351 511.07 608.251 507.26 605.331 502.93C601.621 497.53 599.931 490.94 599.831 484.44C599.781 479.65 599.821 474.86 599.811 470.07H623.771V481.9H686.741V456.66C665.441 456.65 644.131 456.66 622.831 456.66C618.051 456.74 613.351 454.83 609.861 451.61C603.361 445.75 599.991 436.99 599.851 428.34C599.781 418.21 599.821 408.08 599.831 397.94C599.831 390.06 602.321 382.04 607.601 376.08V376.05ZM546.931 539.3C551.991 539.3 557.051 539.28 562.121 539.3C562.101 545.94 562.121 552.59 562.121 559.23H546.941V539.29L546.931 539.3ZM198.281 572.12C200.781 569.52 204.311 567.85 207.951 567.95C220.331 567.98 232.711 567.91 245.091 567.98C250.211 568.18 254.451 571.85 256.891 576.13C259.931 581.03 260.341 586.95 260.141 592.57H244.931C244.831 590.96 245.211 589.27 244.611 587.73C232.191 587.77 219.781 587.73 207.361 587.75C206.911 589.16 207.151 590.65 207.101 592.1C207.151 595.14 207.011 598.19 207.171 601.23C207.281 601.34 207.511 601.56 207.621 601.67C220.061 601.82 232.521 601.66 244.971 601.75C248.091 601.87 251.081 603.28 253.331 605.41C256.541 608.45 258.651 612.55 259.561 616.85C260.381 620.73 260.071 624.72 260.141 628.65C260.081 632.5 260.371 636.39 259.581 640.18C258.661 644.67 256.431 648.95 253.001 652.03C250.681 654.11 247.631 655.4 244.491 655.41C231.971 655.39 219.441 655.45 206.931 655.38C201.311 655.11 196.881 650.72 194.471 645.95C191.991 641.31 191.751 635.94 191.891 630.8H207.101C207.371 632.31 206.491 634.44 207.641 635.59C219.241 635.7 230.841 635.59 242.441 635.64C243.161 635.61 243.911 635.72 244.621 635.51C245.111 634.89 244.851 634.01 244.941 633.28C244.891 629.68 244.991 626.08 244.901 622.48C245.031 621.63 244.081 621.65 243.531 621.66C231.681 621.68 219.841 621.68 208.001 621.66C204.151 621.74 200.451 619.91 197.901 617.08C194.071 613 192.061 607.43 191.941 601.88C191.871 597.26 191.891 592.63 191.931 588.01C192.001 582.18 194.141 576.29 198.281 572.12ZM350.561 621.66C350.561 610.78 350.581 599.89 350.551 589.01C350.581 584.35 349.521 579.6 346.971 575.65C344.431 571.51 340.131 568.01 335.071 567.96C322.551 567.95 310.021 567.93 297.501 567.97C291.271 568.22 286.531 573.38 284.231 578.78C281.751 584.26 282.371 590.39 282.311 596.22V632.25C282.241 635.89 282.421 639.61 283.661 643.08C285.311 647.71 288.401 652.11 292.931 654.27C296.111 655.84 299.731 655.32 303.151 655.4H350.551V635.62C333.231 635.62 315.921 635.63 298.601 635.62C297.791 635.83 297.401 635.06 297.521 634.36C297.521 630.12 297.501 625.89 297.531 621.66C315.211 621.69 332.881 621.66 350.551 621.67L350.561 621.66ZM297.521 590.55C297.531 589.59 297.391 588.58 297.861 587.7C310.291 587.79 322.731 587.63 335.161 587.78C335.571 592.4 335.221 597.07 335.341 601.71C322.731 601.72 310.131 601.71 297.521 601.71C297.501 597.99 297.521 594.26 297.511 590.54L297.521 590.55ZM375.621 574.04C378.171 570.6 382.131 567.95 386.531 567.95C399.101 567.94 411.671 567.95 424.241 567.95V587.73C411.651 587.73 399.061 587.75 386.471 587.71C386.201 588.28 386.081 588.88 386.121 589.51C386.131 611.47 386.121 633.44 386.121 655.4H370.941C370.941 633.11 370.931 610.82 370.941 588.52C370.921 583.36 372.441 578.15 375.611 574.04H375.621ZM440.411 567.94H457.941C466.151 587.67 474.351 607.41 482.561 627.14C483.161 628.52 483.651 629.94 484.361 631.27C493.131 610.16 502.031 589.11 510.751 567.99C516.611 567.88 522.471 567.97 528.341 567.94C516.021 597.08 503.611 626.19 491.341 655.35C486.671 655.42 481.991 655.4 477.321 655.36C465.061 626.2 452.711 597.08 440.421 567.94H440.411ZM546.931 567.94H562.111V655.39H546.931V567.94ZM587.621 578.09C589.991 572.97 594.621 568.18 600.581 567.96C618.181 567.91 635.781 567.94 653.381 567.94C653.371 574.53 653.381 581.12 653.381 587.72C635.901 587.7 618.421 587.75 600.941 587.7C600.391 588.74 600.631 589.94 600.601 591.07C600.601 605.3 600.621 619.54 600.601 633.77C600.661 634.35 600.391 635.59 601.321 635.58C618.761 635.64 636.201 635.58 653.641 635.61V655.39H601.121C597.621 655.41 594.261 653.77 591.841 651.3C587.521 647.01 585.381 640.86 585.401 634.83C585.381 620.92 585.401 607.01 585.401 593.1C585.301 588.03 585.331 582.74 587.631 578.09H587.621ZM742.661 621.65C742.651 610.6 742.691 599.55 742.641 588.51C742.631 583.27 741.081 577.96 737.791 573.83C735.271 570.53 731.441 568 727.191 567.95C714.651 567.94 702.121 567.92 689.581 567.96C684.051 568.16 679.601 572.38 677.151 577.05C674.891 581.15 674.261 585.92 674.391 590.54C674.401 605.3 674.381 620.06 674.401 634.81C674.371 640.73 676.421 646.75 680.591 651.04C683.031 653.64 686.481 655.39 690.101 655.38H742.641V635.6C725.091 635.55 707.531 635.69 689.991 635.54C689.901 635.36 689.731 635.01 689.641 634.84C689.551 630.45 689.621 626.04 689.611 621.65C707.291 621.66 724.961 621.65 742.641 621.65H742.661ZM689.951 587.7C702.391 587.78 714.841 587.62 727.281 587.78C727.651 592.4 727.341 597.06 727.441 601.7C714.831 601.71 702.231 601.7 689.621 601.7C689.601 597.97 689.621 594.25 689.611 590.52C689.611 589.57 689.491 588.57 689.941 587.69L689.951 587.7ZM767.441 575.24C769.991 571.26 774.231 567.96 779.141 567.94C791.511 567.93 803.881 567.93 816.261 567.94C819.491 567.96 822.631 569.34 824.971 571.55C828.401 574.77 830.601 579.19 831.411 583.8C831.931 586.69 831.841 589.63 831.841 592.55H816.631C816.531 590.94 816.901 589.25 816.321 587.71C803.911 587.74 791.491 587.71 779.081 587.73C778.611 589.13 778.861 590.64 778.811 592.09C778.851 595.12 778.721 598.16 778.871 601.19C779.091 601.96 780.081 601.62 780.681 601.73C792.531 601.71 804.381 601.73 816.231 601.73C819.511 601.74 822.691 603.17 825.051 605.41C829.271 609.41 831.551 615.18 831.791 620.95C831.921 625.07 831.821 629.19 831.851 633.31C831.971 638.27 831.051 643.37 828.371 647.62C825.911 651.74 821.721 655.22 816.751 655.39C804.391 655.45 792.041 655.39 779.691 655.42C776.391 655.51 773.151 654.17 770.741 651.97C767.311 648.86 765.031 644.57 764.141 640.04C763.501 637.01 763.601 633.89 763.611 630.81H778.821C779.071 632.33 778.231 634.4 779.331 635.59C791.431 635.69 803.541 635.62 815.651 635.63C816.421 635.79 816.701 635.01 816.641 634.37C816.651 630.57 816.641 626.77 816.641 622.97C816.721 622.31 816.461 621.49 815.651 621.68C803.681 621.66 791.701 621.69 779.731 621.66C776.401 621.72 773.131 620.39 770.691 618.14C766.171 614.03 763.771 607.93 763.651 601.88C763.571 597.43 763.611 592.99 763.631 588.54C763.641 583.87 764.831 579.15 767.461 575.25L767.441 575.24Z" fill="white"/>
</g>
<defs>
<clipPath id="clip0_2_2037">
<rect width="1024" height="1024" fill="white"/>
</clipPath>
</defs>
</svg>

<svg xmlns="http://www.w3.org/2000/svg" viewBox="0 0 1024 1024">
   <circle cx="512" cy="512" r="512" style="fill:#3891f2"/>
   <path d="M413.88 373.8c-3.46-3.2-8.09-5.14-12.82-5.09h-88.32c0 48.17.02 96.33 0 144.49 29.43.03 58.87 0 88.31.02 5.53.09 10.81-2.62 14.45-6.7 5.66-6.06 8.45-14.4 8.42-22.62 0-28.65.01-57.3 0-85.95.03-8.94-3.36-18.06-10.04-24.14Zm-14.24 108.08h-62.93v-81.85h62.94v81.85Zm56.87-113.17h24.73c20.74 32.08 41.45 64.19 62.2 96.28v-96.27h24.25v144.5c-8.24.01-16.49 0-24.73.01-20.84-32.22-41.65-64.46-62.49-96.67-.01 32.22 0 64.44 0 96.67h-23.96v-144.5Zm151.09 7.34c3.63-4.31 8.99-7.36 14.72-7.34 21.97-.02 43.94 0 65.9 0 4.47-.05 8.87 1.69 12.22 4.62 6.61 5.73 10.22 14.41 10.52 23.07.09 5.16.02 10.31.04 15.47h-24.25v-11.83h-62.97v25.28h64.4c4.61-.08 9.14 1.79 12.55 4.87 6.56 5.86 10.08 14.64 10.25 23.35.05 8.06 0 16.12.02 24.17-.05 4.1.21 8.22-.5 12.28-1.1 6.95-4.48 13.59-9.72 18.32-3.29 2.98-7.62 4.87-12.09 4.91-20.57.01-41.14 0-61.71 0-3.17-.04-6.42.25-9.5-.7-5.13-1.45-9.23-5.26-12.15-9.59-3.71-5.4-5.4-11.99-5.5-18.49-.05-4.79-.01-9.58-.02-14.37h23.96v11.83h62.97v-25.24c-21.3-.01-42.61 0-63.91 0-4.78.08-9.48-1.83-12.97-5.05-6.5-5.86-9.87-14.62-10.01-23.27-.07-10.13-.03-20.26-.02-30.4 0-7.88 2.49-15.9 7.77-21.86ZM546.93 539.3c5.06 0 10.12-.02 15.19 0-.02 6.64 0 13.29 0 19.93h-15.18v-19.94Zm-348.65 32.82c2.5-2.6 6.03-4.27 9.67-4.17 12.38.03 24.76-.04 37.14.03 5.12.2 9.36 3.87 11.8 8.15 3.04 4.9 3.45 10.82 3.25 16.44h-15.21c-.1-1.61.28-3.3-.32-4.84-12.42.04-24.83 0-37.25.02-.45 1.41-.21 2.9-.26 4.35.05 3.04-.09 6.09.07 9.13.11.11.34.33.45.44 12.44.15 24.9-.01 37.35.08 3.12.12 6.11 1.53 8.36 3.66 3.21 3.04 5.32 7.14 6.23 11.44.82 3.88.51 7.87.58 11.8-.06 3.85.23 7.74-.56 11.53-.92 4.49-3.15 8.77-6.58 11.85-2.32 2.08-5.37 3.37-8.51 3.38-12.52-.02-25.05.04-37.56-.03-5.62-.27-10.05-4.66-12.46-9.43-2.48-4.64-2.72-10.01-2.58-15.15h15.21c.27 1.51-.61 3.64.54 4.79 11.6.11 23.2 0 34.8.05.72-.03 1.47.08 2.18-.13.49-.62.23-1.5.32-2.23-.05-3.6.05-7.2-.04-10.8.13-.85-.82-.83-1.37-.82-11.85.02-23.69.02-35.53 0-3.85.08-7.55-1.75-10.1-4.58-3.83-4.08-5.84-9.65-5.96-15.2-.07-4.62-.05-9.25-.01-13.87.07-5.83 2.21-11.72 6.35-15.89Zm152.28 49.54c0-10.88.02-21.77-.01-32.65.03-4.66-1.03-9.41-3.58-13.36-2.54-4.14-6.84-7.64-11.9-7.69-12.52-.01-25.05-.03-37.57.01-6.23.25-10.97 5.41-13.27 10.81-2.48 5.48-1.86 11.61-1.92 17.44v36.03c-.07 3.64.11 7.36 1.35 10.83 1.65 4.63 4.74 9.03 9.27 11.19 3.18 1.57 6.8 1.05 10.22 1.13h47.4v-19.78c-17.32 0-34.63.01-51.95 0-.81.21-1.2-.56-1.08-1.26 0-4.24-.02-8.47.01-12.7 17.68.03 35.35 0 53.02.01Zm-53.04-31.11c.01-.96-.13-1.97.34-2.85 12.43.09 24.87-.07 37.3.08.41 4.62.06 9.29.18 13.93-12.61.01-25.21 0-37.82 0-.02-3.72 0-7.45-.01-11.17Zm78.1-16.51c2.55-3.44 6.51-6.09 10.91-6.09 12.57-.01 25.14 0 37.71 0v19.78c-12.59 0-25.18.02-37.77-.02-.27.57-.39 1.17-.35 1.8.01 21.96 0 43.93 0 65.89h-15.18c0-22.29-.01-44.58 0-66.88-.02-5.16 1.5-10.37 4.67-14.48Zm64.79-6.1h17.53c8.21 19.73 16.41 39.47 24.62 59.2.6 1.38 1.09 2.8 1.8 4.13 8.77-21.11 17.67-42.16 26.39-63.28 5.86-.11 11.72-.02 17.59-.05-12.32 29.14-24.73 58.25-37 87.41-4.67.07-9.35.05-14.02.01-12.26-29.16-24.61-58.28-36.9-87.42Zm106.52 0h15.18v87.45h-15.18v-87.45Zm40.69 10.15c2.37-5.12 7-9.91 12.96-10.13 17.6-.05 35.2-.02 52.8-.02-.01 6.59 0 13.18 0 19.78-17.48-.02-34.96.03-52.44-.02-.55 1.04-.31 2.24-.34 3.37 0 14.23.02 28.47 0 42.7.06.58-.21 1.82.72 1.81 17.44.06 34.88 0 52.32.03v19.78h-52.52c-3.5.02-6.86-1.62-9.28-4.09-4.32-4.29-6.46-10.44-6.44-16.47-.02-13.91 0-27.82 0-41.73-.1-5.07-.07-10.36 2.23-15.01Zm155.04 43.56c-.01-11.05.03-22.1-.02-33.14-.01-5.24-1.56-10.55-4.85-14.68-2.52-3.3-6.35-5.83-10.6-5.88-12.54-.01-25.07-.03-37.61.01-5.53.2-9.98 4.42-12.43 9.09-2.26 4.1-2.89 8.87-2.76 13.49.01 14.76-.01 29.52.01 44.27-.03 5.92 2.02 11.94 6.19 16.23 2.44 2.6 5.89 4.35 9.51 4.34h52.54V635.6c-17.55-.05-35.11.09-52.65-.06-.09-.18-.26-.53-.35-.7-.09-4.39-.02-8.8-.03-13.19 17.68.01 35.35 0 53.03 0Zm-52.71-33.95c12.44.08 24.89-.08 37.33.08.37 4.62.06 9.28.16 13.92-12.61.01-25.21 0-37.82 0-.02-3.73 0-7.45-.01-11.18 0-.95-.12-1.95.33-2.83Zm77.49-12.46c2.55-3.98 6.79-7.28 11.7-7.3 12.37-.01 24.74-.01 37.12 0 3.23.02 6.37 1.4 8.71 3.61 3.43 3.22 5.63 7.64 6.44 12.25.52 2.89.43 5.83.43 8.75h-15.21c-.1-1.61.27-3.3-.31-4.84-12.41.03-24.83 0-37.24.02-.47 1.4-.22 2.91-.27 4.36.04 3.03-.09 6.07.06 9.1.22.77 1.21.43 1.81.54 11.85-.02 23.7 0 35.55 0 3.28.01 6.46 1.44 8.82 3.68 4.22 4 6.5 9.77 6.74 15.54.13 4.12.03 8.24.06 12.36.12 4.96-.8 10.06-3.48 14.31-2.46 4.12-6.65 7.6-11.62 7.77-12.36.06-24.71 0-37.06.03-3.3.09-6.54-1.25-8.95-3.45-3.43-3.11-5.71-7.4-6.6-11.93-.64-3.03-.54-6.15-.53-9.23h15.21c.25 1.52-.59 3.59.51 4.78 12.1.1 24.21.03 36.32.04.77.16 1.05-.62.99-1.26.01-3.8 0-7.6 0-11.4.08-.66-.18-1.48-.99-1.29-11.97-.02-23.95.01-35.92-.02-3.33.06-6.6-1.27-9.04-3.52-4.52-4.11-6.92-10.21-7.04-16.26-.08-4.45-.04-8.89-.02-13.34.01-4.67 1.2-9.39 3.83-13.29Z" style="fill:#fff"/>
</svg>
